svgs/thin/underline.svg

<svg xmlns="http://www.w3.org/2000/svg" viewBox="0 0 448 512"><!-- Font Awesome Pro 6.0.0-alpha2 by @fontawesome - https://fontawesome.com License - https://fontawesome.com/license (Commercial License) --><path d="M8 16H72V232C72 315.812 140.188 384 224 384S376 315.812 376 232V16H440C444.406 16 448 12.422 448 8S444.406 0 440 0H296C291.594 0 288 3.578 288 8S291.594 16 296 16H360V232C360 306.984 299 368 224 368S88 306.984 88 232V16H152C156.406 16 160 12.422 160 8S156.406 0 152 0H8C3.594 0 0 3.578 0 8S3.594 16 8 16ZM440 496H8C3.594 496 0 499.578 0 504S3.594 512 8 512H440C444.406 512 448 508.422 448 504S444.406 496 440 496Z"/></svg>

<svg xmlns="http://www.w3.org/2000/svg" viewBox="0 0 448 512"><!--! Font Awesome Pro 6.3.0 by @fontawesome - https://fontawesome.com License - https://fontawesome.com/license (Commercial License) Copyright 2023 Fonticons, Inc. --><path d="M8 16h64v216c0 83.81 68.19 152 152 152S376 315.8 376 232V16h64C444.4 16 448 12.42 448 8S444.4 0 440 0h-144C291.6 0 288 3.578 288 8s3.594 8 8 8h64v216c0 74.98-61 136-136 136S88 306.1 88 232V16h64C156.4 16 160 12.42 160 8S156.4 0 152 0h-144C3.594 0 0 3.578 0 8S3.594 16 8 16zM440 496H8C3.594 496 0 499.6 0 504S3.594 512 8 512h432c4.406 0 8-3.578 8-8S444.4 496 440 496z"/></svg>
